!!!OTL: Yangguang zhaoliang tuzuren
!!!ARE: Asia, China,ÿQinghai Huzu
!! I, 217, 2)
!!!SCT: C1849
!!!YEM: Copyright 1995, estate of Helmut Schaffrath.
**kern
*ICvox
*Ivox
*M3/4
*k[f#]
*G:
{8g
8a
2b
=1
8a
8b
2g
=2
8a
8b
4dd
4ee
=3
4e
2f#
=4
4e
4d
4r}
=5
{4e
4d
8e
8e
=6
8g
8a
2b
=7
8a
8b
2g
=8
4a
4g
4e
=9
2d
4r}
==
!!!AGN: Wuge, Anzhao
!! Tu
!!!ONB: ESAC (Essen Associative Code) Database: SENGANSU
!!!AMT: simple triple
!!!AIN: vox
!!!EED: Helmut Schaffrath
!!!EEV: 1.0
*-
